icon/lg/twilio.svg

<?xml version="1.0" encoding="UTF-8"?>
<svg viewBox="0 0 512 155" version="1.1" xmlns="http://www.w3.org/2000/svg" xmlns:xlink="http://www.w3.org/1999/xlink" preserveAspectRatio="xMidYMid" height="1em" width="1em">
  <g>
    <path d="M77.0156438,0 C119.528279,0 154.031288,34.5030084 154.031288,77.0156438 C154.031288,119.528279 119.528279,154.031288 77.0156438,154.031288 C34.5030084,154.031288 0,119.528279 0,77.0156438 C0,34.5030084 34.5030084,0 77.0156438,0 Z M77.0156438,20.33213 C45.5932611,20.33213 20.33213,45.5932611 20.33213,77.0156438 C20.33213,108.438026 45.5932611,133.699158 77.0156438,133.699158 C108.438026,133.699158 133.699158,108.438026 133.699158,77.0156438 C133.699158,45.5932611 108.438026,20.33213 77.0156438,20.33213 Z M472.876053,52.0625752 C495.672684,52.0625752 512,68.6979543 512,88.4139591 L512,88.4139591 L512,88.7220217 C512,108.438026 495.672684,125.381468 472.56799,125.381468 C449.77136,125.381468 433.444043,108.746089 433.444043,89.0300842 L433.444043,89.0300842 L433.444043,88.7220217 C433.444043,69.0060168 449.77136,52.0625752 472.876053,52.0625752 Z M207.634176,30.4981949 C208.558363,30.1901324 209.482551,31.1143201 209.482551,31.7304452 L209.482551,31.7304452 L209.482551,53.9109507 L250.454874,53.9109507 C251.379061,53.9109507 251.995187,54.5270758 252.303249,55.143201 L252.303249,55.143201 L255.691937,67.7737665 L258.772563,80.4043321 L259.080626,81.0204573 L259.388688,79.788207 L267.090253,54.2190132 C267.398315,53.6028881 268.322503,52.9867629 268.938628,52.9867629 L268.938628,52.9867629 L289.270758,52.9867629 C290.194946,52.9867629 290.811071,53.6028881 291.119134,54.2190132 L291.119134,54.2190132 L299.128761,81.6365824 L299.436823,80.4043321 L306.2142,54.8351384 C306.522262,54.2190132 307.44645,53.6028881 308.062575,53.6028881 L308.062575,53.6028881 L360.433213,53.6028881 C361.049338,53.6028881 361.665463,54.2190132 361.665463,55.143201 L361.665463,55.143201 L361.665463,122.300842 C361.665463,122.916968 361.049338,123.533093 360.433213,123.533093 L360.433213,123.533093 L334.247894,123.533093 C333.631769,123.533093 333.015644,122.916968 333.015644,122.300842 L333.015644,122.300842 L333.015644,57.6077016 L313.299639,122.300842 C312.991576,122.916968 312.067389,123.533093 311.451264,123.533093 L311.451264,123.533093 L289.886883,123.533093 C288.962696,123.533093 288.34657,122.916968 288.038508,122.300842 L288.038508,122.300842 L283.725632,108.746089 L279.104693,93.9590854 L269.862816,122.608905 C269.554753,123.22503 268.630566,123.841155 268.01444,123.841155 L268.01444,123.841155 L246.45006,123.841155 C245.525872,123.841155 244.909747,123.22503 244.601685,122.608905 L244.601685,122.608905 L225.193742,58.2238267 L225.193742,74.8592058 C225.193742,75.4753309 224.577617,76.0914561 223.961492,76.0914561 L223.961492,76.0914561 L209.174489,76.0914561 L209.174489,93.6510229 C209.174489,98.8880866 211.638989,100.736462 216.259928,100.736462 C218.724428,100.736462 220.880866,100.4284 223.65343,99.1961492 C224.269555,99.1961492 225.193742,99.5042118 225.193742,100.4284 L225.193742,100.4284 L225.193742,120.760529 C220.572804,123.22503 213.795427,124.765343 206.709988,124.765343 C189.766546,124.765343 180.524669,116.755716 180.524669,99.8122744 L180.524669,99.8122744 L180.524669,75.7833935 L173.747292,75.7833935 C173.131167,75.7833935 172.515042,75.1672684 172.515042,74.5511432 L172.515042,74.5511432 L172.515042,54.8351384 C172.515042,54.2190132 173.131167,53.6028881 173.747292,53.6028881 L173.747292,53.6028881 L180.524669,53.6028881 L180.524669,39.7400722 C180.524669,39.1239471 180.832732,38.8158845 181.756919,38.5078219 L181.756919,38.5078219 Z M394.936221,30.1901324 C395.552347,30.1901324 396.168472,30.8062575 396.168472,31.4223827 L396.168472,31.4223827 L396.168472,122.300842 C396.168472,122.916968 395.552347,123.533093 394.936221,123.533093 L394.936221,123.533093 L368.750903,123.533093 C368.134777,123.533093 367.518652,122.916968 367.518652,122.300842 L367.518652,122.300842 L367.518652,31.4223827 C367.518652,30.8062575 368.134777,30.1901324 368.750903,30.1901324 L368.750903,30.1901324 Z M429.43923,53.6028881 C430.055355,53.6028881 430.67148,54.2190132 430.67148,55.143201 L430.67148,55.143201 L430.67148,122.300842 C430.67148,122.916968 430.055355,123.533093 429.43923,123.533093 L429.43923,123.533093 L403.253911,123.533093 C402.637786,123.533093 402.021661,122.916968 402.021661,122.300842 L402.021661,122.300842 L402.021661,54.8351384 C402.021661,54.2190132 402.637786,53.6028881 403.253911,53.6028881 L403.253911,53.6028881 Z M96.1155235,80.0962696 C104.962713,80.0962696 112.134777,87.2683338 112.134777,96.1155235 C112.134777,104.962713 104.962713,112.134777 96.1155235,112.134777 C87.2683338,112.134777 80.0962696,104.962713 80.0962696,96.1155235 C80.0962696,87.2683338 87.2683338,80.0962696 96.1155235,80.0962696 Z M57.9157641,80.0962696 C66.7629538,80.0962696 73.9350181,87.2683338 73.9350181,96.1155235 C73.9350181,104.962713 66.7629538,112.134777 57.9157641,112.134777 C49.0685745,112.134777 41.8965102,104.962713 41.8965102,96.1155235 C41.8965102,87.2683338 49.0685745,80.0962696 57.9157641,80.0962696 Z M472.56799,76.0914561 C466.098676,76.0914561 461.477738,81.3285199 461.477738,88.1058965 L461.477738,88.1058965 L461.477738,88.4139591 C461.477738,95.1913357 466.406739,100.736462 472.876053,100.736462 C479.345367,100.736462 483.966306,95.4993983 483.966306,88.7220217 C483.966306,81.6365824 479.037304,76.0914561 472.56799,76.0914561 Z M96.1155235,41.8965102 C104.962713,41.8965102 112.134777,49.0685745 112.134777,57.9157641 C112.134777,66.7629538 104.962713,73.9350181 96.1155235,73.9350181 C87.2683338,73.9350181 80.0962696,66.7629538 80.0962696,57.9157641 C80.0962696,49.0685745 87.2683338,41.8965102 96.1155235,41.8965102 Z M57.9157641,41.8965102 C66.7629538,41.8965102 73.9350181,49.0685745 73.9350181,57.9157641 C73.9350181,66.7629538 66.7629538,73.9350181 57.9157641,73.9350181 C49.0685745,73.9350181 41.8965102,66.7629538 41.8965102,57.9157641 C41.8965102,49.0685745 49.0685745,41.8965102 57.9157641,41.8965102 Z M360.741276,30.1901324 C361.665463,30.1901324 362.281588,30.8062575 361.973526,31.4223827 L361.973526,31.4223827 L361.973526,47.133574 C361.973526,47.7496992 361.357401,48.3658243 360.741276,48.3658243 L360.741276,48.3658243 L333.631769,48.3658243 C333.015644,48.3658243 332.399519,47.7496992 332.399519,47.133574 L332.399519,47.133574 L332.399519,31.4223827 C332.399519,30.8062575 333.015644,30.1901324 333.631769,30.1901324 L333.631769,30.1901324 Z M429.747292,30.1901324 C430.67148,30.1901324 431.287605,30.8062575 430.979543,31.4223827 L430.979543,31.4223827 L430.979543,47.133574 C430.979543,47.7496992 430.363418,48.3658243 429.747292,48.3658243 L429.747292,48.3658243 L402.637786,48.3658243 C402.021661,48.3658243 401.405535,47.7496992 401.405535,47.133574 L401.405535,47.133574 L401.405535,31.4223827 C401.405535,30.8062575 402.021661,30.1901324 402.637786,30.1901324 L402.637786,30.1901324 Z" fill="#F12E45"/>
  </g>
</svg>

<svg width="512" height="155" xmlns="http://www.w3.org/2000/svg" preserveAspectRatio="xMidYMid"><path d="M77.016 0c42.512 0 77.015 34.503 77.015 77.016 0 42.512-34.503 77.015-77.015 77.015C34.503 154.031 0 119.528 0 77.016 0 34.503 34.503 0 77.016 0Zm0 20.332c-31.423 0-56.684 25.261-56.684 56.684 0 31.422 25.261 56.683 56.684 56.683 31.422 0 56.683-25.261 56.683-56.683 0-31.423-25.261-56.684-56.683-56.684Zm395.86 31.73c22.797 0 39.124 16.636 39.124 36.352v.308c0 19.716-16.327 36.66-39.432 36.66-22.797 0-39.124-16.636-39.124-36.352v-.308c0-19.716 16.327-36.66 39.432-36.66ZM207.634 30.499c.924-.308 1.849.616 1.849 1.232v22.181h40.972c.924 0 1.54.616 1.848 1.232l3.389 12.63 3.08 12.631.309.616.308-1.232 7.701-25.569c.308-.616 1.233-1.232 1.849-1.232h20.332c.924 0 1.54.616 1.848 1.232l8.01 27.418.308-1.233 6.777-25.569c.308-.616 1.232-1.232 1.849-1.232h52.37c.616 0 1.232.616 1.232 1.54v67.158c0 .616-.616 1.232-1.232 1.232h-26.185c-.616 0-1.232-.616-1.232-1.232V57.608L313.3 122.3c-.308.616-1.233 1.232-1.849 1.232h-21.564c-.924 0-1.54-.616-1.848-1.232l-4.313-13.555-4.621-14.787-9.242 28.65c-.308.616-1.232 1.232-1.849 1.232H246.45c-.924 0-1.54-.616-1.848-1.232l-19.408-64.385v16.635c0 .616-.616 1.232-1.233 1.232h-14.787v17.56c0 5.237 2.465 7.085 7.086 7.085 2.464 0 4.62-.308 7.393-1.54.617 0 1.54.308 1.54 1.232v20.333c-4.62 2.464-11.398 4.004-18.483 4.004-16.943 0-26.185-8.01-26.185-24.953V75.783h-6.778c-.616 0-1.232-.616-1.232-1.232V54.835c0-.616.616-1.232 1.232-1.232h6.778V39.74c0-.616.308-.924 1.232-1.232Zm187.302-.308c.616 0 1.232.616 1.232 1.232v90.879c0 .616-.616 1.232-1.232 1.232h-26.185c-.616 0-1.232-.616-1.232-1.232V31.422c0-.616.616-1.232 1.232-1.232Zm34.503 23.413c.616 0 1.232.616 1.232 1.54v67.158c0 .616-.616 1.232-1.232 1.232h-26.185c-.616 0-1.232-.616-1.232-1.232V54.835c0-.616.616-1.232 1.232-1.232ZM96.116 80.096c8.847 0 16.019 7.172 16.019 16.02 0 8.847-7.172 16.019-16.02 16.019-8.847 0-16.019-7.172-16.019-16.02 0-8.847 7.172-16.019 16.02-16.019Zm-38.2 0c8.847 0 16.019 7.172 16.019 16.02 0 8.847-7.172 16.019-16.02 16.019-8.846 0-16.018-7.172-16.018-16.02 0-8.847 7.172-16.019 16.019-16.019Zm414.652-4.005c-6.47 0-11.09 5.238-11.09 12.015v.308c0 6.777 4.929 12.322 11.398 12.322 6.47 0 11.09-5.237 11.09-12.014 0-7.085-4.929-12.63-11.398-12.63ZM96.116 41.897c8.847 0 16.019 7.172 16.019 16.019 0 8.847-7.172 16.019-16.02 16.019-8.847 0-16.019-7.172-16.019-16.02 0-8.846 7.172-16.018 16.02-16.018Zm-38.2 0c8.847 0 16.019 7.172 16.019 16.019 0 8.847-7.172 16.019-16.02 16.019-8.846 0-16.018-7.172-16.018-16.02 0-8.846 7.172-16.018 16.019-16.018ZM360.74 30.19c.924 0 1.54.616 1.233 1.232v15.712c0 .616-.617 1.232-1.233 1.232h-27.11c-.615 0-1.231-.616-1.231-1.232V31.422c0-.616.616-1.232 1.232-1.232Zm69.006 0c.924 0 1.54.616 1.233 1.232v15.712c0 .616-.617 1.232-1.233 1.232h-27.11c-.615 0-1.231-.616-1.231-1.232V31.422c0-.616.616-1.232 1.232-1.232Z" fill="#F12E45"/></svg>
